src/dj_spinners/assets/svg/heart-pulse-3.svg

<svg xmlns="http://www.w3.org/2000/svg" viewBox="110 50 328 140"><style>@-webkit-keyframes dash11432{0%{stroke-dashoffset:814}to{stroke-dashoffset:-814}}</style><path fill="none" stroke="currentColor" stroke-linejoin="round" stroke-width="4" d="M0 90h250q7-30 12-3t5 8 3-7 3 4 6 35 7-60 4 60 7-20s2-11 10-10 1 1 8-10l4 8c6 4 8-6 10-17s2 10 9 11h210" style="stroke-dasharray:281;-webkit-animation:dash11432 2.5s infinite linear forwards"/></svg>

<svg version="1.2" xmlns="http://www.w3.org/2000/svg" viewBox="110 50 328 140" xmlns:xlink="http://www.w3.org/1999/xlink"><style>#pulsar5512 {
            stroke-dasharray: 281;
            -webkit-animation: dash11432 2.5s infinite linear forwards;
        }

        /*Animation*/
        @-webkit-keyframes dash11432 {
            from {
                stroke-dashoffset: 814;
            }

            to {
                stroke-dashoffset: -814;
            }
        }</style><path id="pulsar5512" stroke="currentColor" fill="none" stroke-width="4" stroke-linejoin="round" d="M0,90L250,90Q257,60 262,87T267,95 270,88 273,92t6,35 7,-60T290,127 297,107s2,-11 10,-10 1,1 8,-10T319,95c6,4 8,-6 10,-17s2,10 9,11h210"/></svg>
